;FLAVOR:Marlin
;TIME:20616
;Filament used: 15.0368m
;Layer height: 0.16
;MINX:54.86
;MINY:45.052
;MINZ:0.2
;MAXX:204.021
;MAXY:195.951
;MAXZ:56.96
;Generated with Cura_SteamEngine 4.7.1
M140 S60
M105
M190 S60
M104 S200
M105
M109 S200
M82 ;absolute extrusion mode
; Ender 3 Custom Start G-code
G92 E0 ; Reset Extruder
G28 ; Home all axes
G1 Z2.0 F3000 ; Move Z Axis up little to prevent scratching of Heat Bed
G1 X0.1 Y20 Z0.3 F5000.0 ; Move to start position
G1 X0.1 Y200.0 Z0.3 F1500.0 E15 ; Draw the first line
G1 X0.4 Y200.0 Z0.3 F5000.0 ; Move to side a little
G1 X0.4 Y20 Z0.3 F1500.0 E30 ; Draw the second line
G92 E0 ; Reset Extruder
G1 Z2.0 F3000 ; Move Z Axis up little to prevent scratching of Heat Bed
G1 X5 Y20 Z0.3 F5000.0 ; Move over to prevent blob squish
G92 E0
G92 E0
G1 F2700 E-5
;LAYER_COUNT:289
;LAYER:0
M107 P1
G0 F6000 X58.158 Y49.575 Z0.2
;TYPE:SKIRT
G1 F2700 E0
G1 F1200 X58.296 Y49.42 E0.00863
G1 X59.104 Y48.601 E0.05646
G1 X59.245 Y48.472 E0.06441
G1 X60.196 Y47.693 E0.11551
G1 X60.401 Y47.543 E0.12608
G1 X61.189 Y47.016 E0.16549
G1 X61.604 Y46.774 E0.18546
G1 X61.814 Y46.658 E0.19544
G1 X62.994 Y46.094 E0.24981
G1 X63.214 Y46.004 E0.25969
G1 X64.343 Y45.611 E0.30939
G1 X64.519 Y45.56 E0.31701
G1 X65.777 Y45.272 E0.37067
G1 X66.002 Y45.234 E0.38015
G1 X67.112 Y45.103 E0.42662
G1 X67.318 Y45.089 E0.43521
G1 X67.92 Y45.064 E0.46026
G1 X68.689 Y45.053 E0.49223
G1 X98.503 Y45.052 E1.73175
G1 X99.325 Y45.062 E1.76593
G1 X99.83 Y45.08 E1.78694
G1 X100.104 Y45.096 E1.79835
G1 X101.122 Y45.202 E1.8409
G1 X101.235 Y45.219 E1.84565
G1 X102.487 Y45.481 E1.89883
G1 X102.81 Y45.568 E1.91274
G1 X103.715 Y45.853 E1.95219
G1 X104.235 Y46.056 E1.97539
G1 X104.421 Y46.134 E1.98378
G1 X104.787 Y46.296 E2.00042
G1 X105.202 Y46.489 E2.01945
G1 X107.203 Y47.456 E2.11185
G1 X109.464 Y48.472 E2.2149
G1 X111.75 Y49.423 E2.31784
G1 X114.148 Y50.34 E2.42458
G1 X116.516 Y51.171 E2.52891
G1 X118.907 Y51.933 E2.63325
G1 X121.305 Y52.625 E2.73701
G1 X123.754 Y53.255 E2.84214
G1 X126.166 Y53.807 E2.94501
G1 X128.642 Y54.297 E3.04995
G1 X131.143 Y54.72 E3.15541
G1 X133.603 Y55.064 E3.25868
G1 X136.108 Y55.343 E3.36347
G1 X138.636 Y55.552 E3.46893
G1 X141.118 Y55.687 E3.57227
G1 X143.618 Y55.752 E3.67624
G1 X146.115 Y55.745 E3.78006
G1 X149.911 Y55.606 E3.93798
G1 X150.976 Y55.544 E3.98233
G1 X151.275 Y55.53 E3.99478
G1 X151.564 Y55.521 E4.0068
G1 X151.914 Y55.516 E4.02135
G1 X192.228 Y55.516 E5.69741
G1 X192.909 Y55.526 E5.72573
G1 X193.856 Y55.58 E5.76517
G1 X194.795 Y55.714 E5.8046
G1 X195.72 Y55.926 E5.84405
G1 X196.623 Y56.215 E5.88347
G1 X197.499 Y56.579 E5.92291
G1 X198.341 Y57.016 E5.96235
G1 X199.143 Y57.522 E6.00178
G1 X199.899 Y58.094 E6.04119
G1 X200.605 Y58.727 E6.08061
G1 X201.124 Y59.269 E6.11181
G1 X201.728 Y60 E6.15124
G1 X202.269 Y60.78 E6.1907
G1 X202.742 Y61.602 E6.23013
G1 X203.144 Y62.461 E6.26956
G1 X203.472 Y63.351 E6.30899
G1 X203.724 Y64.265 E6.34841
G1 X203.898 Y65.198 E6.38787
G1 X204.008 Y66.479 E6.44132
G1 X204.017 Y66.799 E6.45463
G1 X204.021 Y67.115 E6.46777
G1 X204.02 Y104.215 E8.01021
G1 X204.01 Y104.919 E8.03948
G1 X203.956 Y105.866 E8.07892
G1 X203.823 Y106.805 E8.11835
G1 X203.612 Y107.729 E8.15775
G1 X203.323 Y108.633 E8.19721
G1 X202.959 Y109.509 E8.23665
G1 X202.347 Y110.647 E8.29037
G1 X202.044 Y111.14 E8.31443
G1 X200.704 Y113.389 E8.42327
G1 X199.496 Y115.553 E8.52631
G1 X198.32 Y117.809 E8.63208
G1 X197.243 Y120.023 E8.73444
G1 X196.19 Y122.354 E8.84078
G1 X195.248 Y124.605 E8.94223
G1 X194.336 Y126.973 E9.04773
G1 X193.489 Y129.371 E9.15346
G1 X192.717 Y131.773 E9.25836
G1 X192.03 Y134.137 E9.36071
G1 X191.385 Y136.614 E9.46712
G1 X190.839 Y138.982 E9.56815
G1 X190.333 Y141.503 E9.67506
G1 X189.908 Y143.99 E9.77995
G1 X189.556 Y146.458 E9.8836
G1 X189.275 Y148.933 E9.98716
G1 X189.061 Y151.464 E10.09276
G1 X188.921 Y153.925 E10.19524
G1 X188.838 Y157.818 E10.35713
G1 X188.837 Y179.166 E11.24468
G1 X188.827 Y179.901 E11.27524
G1 X188.729 Y181.241 E11.3311
G1 X188.695 Y181.495 E11.34175
G1 X188.529 Y182.429 E11.38119
G1 X188.286 Y183.345 E11.42059
G1 X188.009 Y184.13 E11.4552
G1 X187.895 Y184.419 E11.46812
G1 X187.51 Y185.286 E11.50756
G1 X187.017 Y186.178 E11.54993
G1 X186.982 Y186.235 E11.55271
G1 X186.444 Y187.032 E11.59269
G1 X186.314 Y187.208 E11.60179
G1 X185.719 Y187.946 E11.6412
G1 X185.042 Y188.653 E11.68189
G1 X184.788 Y188.896 E11.69651
G1 X184.076 Y189.522 E11.73592
G1 X183.559 Y189.915 E11.76292
G1 X183.464 Y189.983 E11.76778
G1 X182.639 Y190.52 E11.80871
G1 X182.331 Y190.702 E11.82358
G1 X181.35 Y191.219 E11.86968
G1 X181.066 Y191.351 E11.8827
G1 X180.012 Y191.777 E11.92997
G1 X179.793 Y191.853 E11.9396
G1 X178.968 Y192.105 E11.97547
G1 X178.683 Y192.18 E11.98772
G1 X178.257 Y192.283 E12.00594
G1 X177.552 Y192.421 E12.03581
G1 X177.324 Y192.458 E12.04541
G1 X176.712 Y192.54 E12.07108
G1 X176.43 Y192.57 E12.08287
G1 X175.437 Y192.631 E12.12424
G1 X174.295 Y192.651 E12.17172
G1 X174.098 Y192.653 E12.17991
G1 X144.618 Y192.653 E13.40555
G1 X142.02 Y192.69 E13.51357
G1 X139.514 Y192.796 E13.61785
G1 X136.993 Y192.975 E13.72293
G1 X134.515 Y193.22 E13.82645
G1 X132.032 Y193.538 E13.93053
G1 X129.512 Y193.934 E14.03658
G1 X127.083 Y194.386 E14.1393
G1 X124.619 Y194.916 E14.24409
G1 X123.147 Y195.277 E14.3071
G1 X122.994 Y195.308 E14.31359
G1 X121.776 Y195.609 E14.36575
G1 X120.846 Y195.798 E14.40521
G1 X119.904 Y195.907 E14.44463
G1 X119.243 Y195.937 E14.47214
G1 X118.508 Y195.948 E14.5027
G1 X91.052 Y195.951 E15.64419
G1 X88.475 Y195.948 E15.75133
G1 X87.789 Y195.938 E15.77985
G1 X86.842 Y195.884 E15.81929
G1 X85.903 Y195.751 E15.85872
G1 X84.979 Y195.539 E15.89813
G1 X84.075 Y195.25 E15.93759
G1 X83.199 Y194.885 E15.97704
G1 X82.357 Y194.449 E16.01646
G1 X81.593 Y193.969 E16.05398
G1 X81.415 Y193.847 E16.06295
G1 X80.656 Y193.278 E16.10239
G1 X79.947 Y192.647 E16.14185
G1 X79.295 Y191.959 E16.18125
G1 X78.702 Y191.219 E16.22068
G1 X78.174 Y190.431 E16.26012
G1 X77.714 Y189.601 E16.29957
G1 X77.326 Y188.736 E16.33898
G1 X76.967 Y187.689 E16.385
G1 X76.954 Y187.644 E16.38695
G1 X76.729 Y186.723 E16.42636
G1 X76.583 Y185.786 E16.46579
G1 X76.513 Y184.691 E16.51141
G1 X76.502 Y183.957 E16.54193
G1 X76.501 Y179.166 E16.74111
G1 X76.464 Y176.597 E16.84793
G1 X76.358 Y174.091 E16.95221
G1 X76.179 Y171.57 E17.05729
G1 X75.934 Y169.097 E17.16061
G1 X75.615 Y166.606 E17.26501
G1 X75.22 Y164.09 E17.3709
G1 X74.768 Y161.661 E17.47362
G1 X74.231 Y159.166 E17.57972
G1 X73.636 Y156.745 E17.68337
G1 X72.977 Y154.349 E17.78669
G1 X72.241 Y151.945 E17.89121
G1 X71.435 Y149.554 E17.99611
G1 X70.569 Y147.208 E18.10008
G1 X69.63 Y144.869 E18.20487
G1 X68.633 Y142.578 E18.30875
G1 X67.567 Y140.304 E18.41316
G1 X66.437 Y138.061 E18.51758
G1 X65.232 Y135.827 E18.62311
G1 X64.005 Y133.7 E18.7252
G1 X62.673 Y131.537 E18.83081
G1 X61.3 Y129.44 E18.93502
G1 X59.871 Y127.389 E19.03894
G1 X57.918 Y124.763 E19.175
G1 X57.596 Y124.346 E19.19691
G1 X56.881 Y123.305 E19.24941
G1 X56.716 Y123.033 E19.26264
G1 X56.259 Y122.202 E19.30207
G1 X56.016 Y121.679 E19.32605
G1 X55.917 Y121.451 E19.33638
G1 X55.443 Y120.144 E19.39418
G1 X55.378 Y119.923 E19.40376
G1 X55.078 Y118.624 E19.45919
G1 X55.042 Y118.411 E19.46817
G1 X54.911 Y117.303 E19.51455
G1 X54.897 Y117.098 E19.5231
G1 X54.872 Y116.492 E19.54831
G1 X54.861 Y115.723 E19.58029
G1 X54.86 Y58.988 E21.93905
G1 X54.87 Y58.182 E21.97257
G1 X54.888 Y57.682 E21.99337
G1 X54.904 Y57.408 E22.00478
G1 X55.024 Y56.299 E22.05115
G1 X55.041 Y56.192 E22.05566
G1 X55.286 Y55.043 E22.1045
G1 X55.378 Y54.7 E22.11927
G1 X55.832 Y53.354 E22.17832
G1 X55.886 Y53.222 E22.18425
G1 X56.395 Y52.144 E22.23382
G1 X56.526 Y51.901 E22.24529
G1 X57.011 Y51.085 E22.28476
G1 X57.281 Y50.691 E22.30462
G1 X57.412 Y50.508 E22.31397
G1 X58.158 Y49.575 E22.36364
G0 F6000 X58.531 Y49.908
G1 F1200 X58.669 Y49.753 E22.37227
G1 X59.442 Y48.97 E22.41801
G1 X59.583 Y48.841 E22.42596
G1 X60.491 Y48.096 E22.47479
G1 X60.696 Y47.946 E22.48535
G1 X61.846 Y47.212 E22.54207
G1 X62.056 Y47.096 E22.55204
G1 X63.184 Y46.556 E22.60404
G1 X63.404 Y46.466 E22.61392
G1 X64.482 Y46.091 E22.66137
G1 X64.658 Y46.04 E22.66899
G1 X65.86 Y45.765 E22.72025
G1 X66.085 Y45.727 E22.72974
G1 X67.146 Y45.602 E22.77416
G1 X67.352 Y45.588 E22.78274
G1 X67.927 Y45.564 E22.80667
G1 X68.696 Y45.553 E22.83864
G1 X98.503 Y45.552 E24.07787
G1 X99.318 Y45.562 E24.11176
G1 X99.801 Y45.579 E24.13185
G1 X100.075 Y45.595 E24.14326
G1 X101.047 Y45.697 E24.1839
G1 X101.16 Y45.714 E24.18865
G1 X102.357 Y45.964 E24.23949
G1 X102.68 Y46.051 E24.25339
G1 X103.564 Y46.33 E24.29193
G1 X104.041 Y46.517 E24.31323
G1 X104.227 Y46.595 E24.32162
G1 X104.577 Y46.75 E24.33753
G1 X104.984 Y46.939 E24.35619
G1 X106.989 Y47.908 E24.44877
G1 X109.286 Y48.94 E24.55347
G1 X111.547 Y49.881 E24.65528
G1 X113.984 Y50.813 E24.76376
G1 X116.346 Y51.641 E24.86782
G1 X118.763 Y52.412 E24.9733
G1 X121.171 Y53.106 E25.07748
G1 X123.631 Y53.74 E25.1831
G1 X126.062 Y54.295 E25.28677
G1 X128.572 Y54.793 E25.39316
G1 X131.06 Y55.213 E25.49806
G1 X133.548 Y55.561 E25.60251
G1 X136.078 Y55.843 E25.70834
G1 X138.568 Y56.049 E25.81222
G1 X141.113 Y56.187 E25.91818
G1 X143.606 Y56.252 E26.02186
G1 X146.105 Y56.245 E26.12576
G1 X149.959 Y56.103 E26.2861
G1 X151.005 Y56.043 E26.32966
G1 X151.29 Y56.03 E26.34152
G1 X151.579 Y56.021 E26.35354
G1 X151.914 Y56.016 E26.36747
G1 X192.221 Y56.016 E28.04324
G1 X192.902 Y56.026 E28.07156
G1 X193.827 Y56.08 E28.11008
G1 X194.745 Y56.213 E28.14864
G1 X195.648 Y56.425 E28.18721
G1 X196.529 Y56.713 E28.22574
G1 X197.382 Y57.077 E28.2643
G1 X198.2 Y57.512 E28.30282
G1 X198.978 Y58.017 E28.34138
G1 X199.709 Y58.587 E28.37992
G1 X200.389 Y59.217 E28.41846
G1 X200.752 Y59.604 E28.44052
G1 X201.342 Y60.319 E28.47906
G1 X201.868 Y61.082 E28.51759
G1 X202.327 Y61.888 E28.55615
G1 X202.714 Y62.731 E28.59472
G1 X203.027 Y63.603 E28.63323
G1 X203.264 Y64.5 E28.67181
G1 X203.423 Y65.413 E28.71034
G1 X203.508 Y66.493 E28.75538
G1 X203.517 Y66.813 E28.76868
G1 X203.521 Y67.115 E28.78124
G1 X203.52 Y104.208 E30.32339
G1 X203.51 Y104.912 E30.35266
G1 X203.457 Y105.837 E30.39118
G1 X203.324 Y106.755 E30.42975
G1 X203.113 Y107.658 E30.4683
G1 X202.825 Y108.539 E30.50683
G1 X202.461 Y109.392 E30.54539
G1 X201.921 Y110.385 E30.59239
G1 X201.648 Y110.829 E30.61406
G1 X200.27 Y113.141 E30.72596
G1 X199.057 Y115.315 E30.82946
G1 X197.89 Y117.552 E30.93436
G1 X196.772 Y119.851 E31.04064
G1 X195.736 Y122.145 E31.14529
G1 X194.797 Y124.387 E31.24634
G1 X193.848 Y126.849 E31.35604
G1 X193.023 Y129.188 E31.45916
G1 X192.241 Y131.618 E31.56529
G1 X191.544 Y134.019 E31.66923
G1 X190.901 Y136.488 E31.77531
G1 X190.351 Y138.875 E31.87715
G1 X189.839 Y141.424 E31.98524
G1 X189.415 Y143.905 E32.08988
G1 X189.06 Y146.397 E32.19453
G1 X188.779 Y148.87 E32.29801
G1 X188.562 Y151.429 E32.40478
G1 X188.422 Y153.897 E32.50755
G1 X188.338 Y157.854 E32.6721
G1 X188.337 Y179.159 E33.55786
G1 X188.327 Y179.894 E33.58842
G1 X188.233 Y181.174 E33.64178
G1 X188.199 Y181.428 E33.65244
G1 X188.036 Y182.341 E33.691
G1 X187.796 Y183.236 E33.72952
G1 X187.544 Y183.947 E33.76088
G1 X187.43 Y184.236 E33.7738
G1 X187.053 Y185.083 E33.81234
G1 X186.591 Y185.916 E33.85195
G1 X186.556 Y185.973 E33.85473
G1 X186.042 Y186.735 E33.89294
G1 X185.912 Y186.911 E33.90204
G1 X185.329 Y187.632 E33.94059
G1 X184.696 Y188.292 E33.97861
G1 X184.442 Y188.535 E33.99322
G1 X183.745 Y189.146 E34.03176
G1 X183.268 Y189.508 E34.05665
G1 X183.173 Y189.576 E34.06151
G1 X182.385 Y190.09 E34.10062
G1 X182.077 Y190.272 E34.1155
G1 X181.139 Y190.765 E34.15955
G1 X180.855 Y190.897 E34.17257
G1 X179.848 Y191.305 E34.21775
G1 X179.629 Y191.381 E34.22738
G1 X178.841 Y191.621 E34.26163
G1 X178.556 Y191.696 E34.27388
G1 X178.215 Y191.78 E34.28848
G1 X178.145 Y191.796 E34.29147
G1 X177.472 Y191.927 E34.31997
G1 X177.244 Y191.964 E34.32958
G1 X176.659 Y192.043 E34.35412
G1 X176.377 Y192.073 E34.36591
G1 X175.428 Y192.131 E34.40544
G1 X174.286 Y192.151 E34.45292
G1 X174.098 Y192.153 E34.46074
G1 X144.611 Y192.153 E35.68667
G1 X141.992 Y192.19 E35.79556
G1 X139.494 Y192.296 E35.89951
G1 X136.98 Y192.474 E36.00429
G1 X134.439 Y192.726 E36.11046
G1 X131.963 Y193.043 E36.21424
G1 X129.449 Y193.438 E36.32004
G1 X126.958 Y193.901 E36.42538
G1 X124.525 Y194.425 E36.52885
G1 X123.027 Y194.792 E36.59297
G1 X122.881 Y194.821 E36.59916
G1 X121.656 Y195.124 E36.65162
G1 X120.747 Y195.307 E36.69017
G1 X119.826 Y195.412 E36.72871
G1 X119.236 Y195.437 E36.75326
G1 X118.501 Y195.448 E36.78382
G1 X91.052 Y195.451 E37.92502
G1 X88.482 Y195.448 E38.03187
G1 X87.796 Y195.438 E38.06039
G1 X86.871 Y195.384 E38.09891
G1 X85.953 Y195.251 E38.13748
G1 X85.05 Y195.04 E38.17603
G1 X84.169 Y194.751 E38.21458
G1 X83.316 Y194.388 E38.25312
G1 X82.498 Y193.952 E38.29166
G1 X81.876 Y193.556 E38.32232
G1 X81.698 Y193.434 E38.33129
G1 X80.956 Y192.878 E38.36984
G1 X80.265 Y192.259 E38.40841
G1 X79.63 Y191.583 E38.44696
G1 X79.056 Y190.855 E38.48551
G1 X78.547 Y190.081 E38.52402
G1 X78.106 Y189.265 E38.56258
G1 X77.737 Y188.415 E38.60111
G1 X77.447 Y187.551 E38.639
G1 X77.434 Y187.506 E38.64095
G1 X77.216 Y186.605 E38.67949
G1 X77.075 Y185.688 E38.71806
G1 X77.013 Y184.683 E38.75992
G1 X77.002 Y183.949 E38.79044
G1 X77.001 Y179.159 E38.98959
G1 X76.964 Y176.569 E39.09728
G1 X76.858 Y174.071 E39.20123
G1 X76.68 Y171.557 E39.30601
G1 X76.428 Y169.016 E39.41217
G1 X76.111 Y166.541 E39.51591
G1 X75.716 Y164.027 E39.62171
G1 X75.253 Y161.536 E39.72705
G1 X74.717 Y159.047 E39.8329
G1 X74.126 Y156.641 E39.9359
G1 X73.457 Y154.208 E40.04081
G1 X72.712 Y151.775 E40.1466
G1 X71.911 Y149.401 E40.25076
G1 X71.036 Y147.028 E40.35592
G1 X70.093 Y144.681 E40.46107
G1 X69.083 Y142.36 E40.56631
G1 X68.012 Y140.077 E40.67115
G1 X66.884 Y137.835 E40.7755
G1 X65.673 Y135.591 E40.88151
G1 X64.423 Y133.424 E40.98552
G1 X63.096 Y131.269 E41.09074
G1 X61.714 Y129.158 E41.19564
G1 X60.298 Y127.126 E41.29861
G1 X58.308 Y124.451 E41.43722
G1 X57.992 Y124.041 E41.45874
G1 X57.309 Y123.045 E41.50895
G1 X57.144 Y122.773 E41.52218
G1 X56.698 Y121.961 E41.56069
G1 X56.474 Y121.48 E41.58275
G1 X56.375 Y121.252 E41.59309
G1 X55.923 Y120.003 E41.64831
G1 X55.858 Y119.782 E41.65789
G1 X55.571 Y118.54 E41.71088
G1 X55.535 Y118.327 E41.71986
G1 X55.41 Y117.268 E41.7642
G1 X55.396 Y117.063 E41.77274
G1 X55.372 Y116.485 E41.79679
G1 X55.361 Y115.716 E41.82877
G1 X55.36 Y58.988 E44.18724
G1 X55.37 Y58.189 E44.22046
G1 X55.387 Y57.711 E44.24035
G1 X55.403 Y57.437 E44.25176
G1 X55.518 Y56.377 E44.29609
G1 X55.535 Y56.27 E44.30059
G1 X55.769 Y55.172 E44.34727
G1 X55.861 Y54.829 E44.36203
G1 X56.294 Y53.544 E44.41841
G1 X56.348 Y53.412 E44.42434
G1 X56.835 Y52.381 E44.47174
G1 X56.966 Y52.138 E44.48322
G1 X57.688 Y50.982 E44.53988
G1 X57.819 Y50.799 E44.54924
G1 X58.531 Y49.908 E44.59666
G0 F6000 X58.905 Y50.24
G1 F1200 X59.043 Y50.085 E44.60529
G1 X59.779 Y49.338 E44.64889
G1 X59.92 Y49.209 E44.65683
G1 X60.786 Y48.5 E44.70336
G1 X60.991 Y48.35 E44.71392
G1 X62.088 Y47.65 E44.76803
G1 X62.298 Y47.534 E44.778
G1 X63.373 Y47.019 E44.82756
G1 X63.593 Y46.929 E44.83744
G1 X64.621 Y46.571 E44.8827
G1 X64.797 Y46.52 E44.89031
G1 X65.943 Y46.258 E44.93919
G1 X66.168 Y46.22 E44.94868
G1 X67.18 Y46.101 E44.99104
G1 X67.386 Y46.087 E44.99962
G1 X67.934 Y46.064 E45.02243
G1 X68.85 Y46.052 E45.06051
G1 X98.503 Y46.052 E46.29334
G1 X99.311 Y46.062 E46.32694
G1 X99.772 Y46.078 E46.34611
G1 X100.046 Y46.094 E46.35753
G1 X100.973 Y46.191 E46.39628
G1 X101.086 Y46.208 E46.40103
G1 X102.227 Y46.447 E46.44949
G1 X102.55 Y46.534 E46.4634
G1 X103.413 Y46.808 E46.50105
G1 X103.848 Y46.979 E46.52048
G1 X104.034 Y47.057 E46.52886
G1 X104.368 Y47.204 E46.54403
G1 X104.767 Y47.39 E46.56234
G1 X106.753 Y48.35 E46.65405
G1 X109.081 Y49.396 E46.76015
G1 X111.374 Y50.35 E46.86341
G1 X113.818 Y51.285 E46.9722
G1 X116.166 Y52.108 E47.07564
G1 X118.643 Y52.898 E47.18373
G1 X121.054 Y53.593 E47.28805
G1 X123.507 Y54.225 E47.39337
G1 X125.951 Y54.783 E47.49759
G1 X128.463 Y55.281 E47.60406
G1 X130.979 Y55.706 E47.71015
G1 X133.495 Y56.058 E47.81577
G1 X136.018 Y56.339 E47.92131
G1 X138.535 Y56.547 E48.02631
