;FLAVOR:Marlin
;TIME:12191
;Filament used: 19.1118m
;Layer height: 0.28
;MINX:54.11
;MINY:44.302
;MINZ:0.32
;MAXX:204.773
;MAXY:198.36
;MAXZ:59.96
;Generated with Cura_SteamEngine 4.7.1
M140 S60
M105
M190 S60
M104 S200
M105
M109 S200
M82 ;absolute extrusion mode
; Ender 3 Custom Start G-code
G92 E0 ; Reset Extruder
G28 ; Home all axes
G1 Z2.0 F3000 ; Move Z Axis up little to prevent scratching of Heat Bed
G1 X0.1 Y20 Z0.3 F5000.0 ; Move to start position
G1 X0.1 Y200.0 Z0.3 F1500.0 E15 ; Draw the first line
G1 X0.4 Y200.0 Z0.3 F5000.0 ; Move to side a little
G1 X0.4 Y20 Z0.3 F1500.0 E30 ; Draw the second line
G92 E0 ; Reset Extruder
G1 Z2.0 F3000 ; Move Z Axis up little to prevent scratching of Heat Bed
G1 X5 Y20 Z0.3 F5000.0 ; Move over to prevent blob squish
G92 E0
G92 E0
G1 F2700 E-5
;LAYER_COUNT:214
;LAYER:0
M107 P1
G0 F6000 X57.565 Y49.113 Z0.32
;TYPE:SKIRT
G1 F2700 E0
G1 F1200 X57.701 Y48.959 E0.02187
G1 X58.651 Y47.998 E0.16569
G1 X58.796 Y47.867 E0.18649
G1 X59.741 Y47.097 E0.31623
G1 X59.944 Y46.948 E0.34303
G1 X60.756 Y46.401 E0.44723
G1 X61.242 Y46.118 E0.50709
G1 X61.452 Y46.002 E0.53262
G1 X62.718 Y45.396 E0.68201
G1 X62.936 Y45.307 E0.70707
G1 X63.858 Y44.974 E0.8114
G1 X64.714 Y44.738 E0.90591
G1 X65.057 Y44.657 E0.94342
G1 X66.019 Y44.471 E1.0477
G1 X66.785 Y44.38 E1.1298
G1 X67.052 Y44.357 E1.15833
G1 X67.91 Y44.314 E1.24976
G1 X68.678 Y44.303 E1.33151
G1 X98.503 Y44.302 E4.50586
G1 X99.335 Y44.312 E4.59441
G1 X99.874 Y44.331 E4.65182
G1 X100.148 Y44.347 E4.68103
G1 X101.392 Y44.486 E4.81426
G1 X101.593 Y44.519 E4.83593
G1 X102.99 Y44.834 E4.98835
G1 X103.197 Y44.894 E5.01129
G1 X104.464 Y45.34 E5.15425
G1 X104.678 Y45.429 E5.17892
G1 X105.102 Y45.615 E5.2282
G1 X105.338 Y45.724 E5.25587
G1 X105.528 Y45.814 E5.27824
G1 X107.513 Y46.773 E5.51288
G1 X109.775 Y47.79 E5.77684
G1 X112.003 Y48.717 E6.03368
G1 X114.417 Y49.64 E6.30875
G1 X116.741 Y50.455 E6.57086
G1 X119.118 Y51.213 E6.8364
G1 X121.519 Y51.904 E7.10232
G1 X123.92 Y52.523 E7.36622
G1 X126.317 Y53.071 E7.62792
G1 X128.763 Y53.556 E7.89332
G1 X131.264 Y53.978 E8.16327
G1 X133.717 Y54.322 E8.42691
G1 X136.18 Y54.596 E8.69067
G1 X138.665 Y54.801 E8.95605
G1 X141.142 Y54.936 E9.22008
G1 X143.633 Y55.001 E9.48529
G1 X146.082 Y54.995 E9.74594
G1 X149.887 Y54.854 E10.1512
G1 X150.931 Y54.794 E10.2625
G1 X151.249 Y54.78 E10.29637
G1 X151.538 Y54.771 E10.32715
G1 X151.912 Y54.765 E10.36696
G1 X192.241 Y54.765 E14.65927
G1 X192.922 Y54.775 E14.73176
G1 X193.9 Y54.83 E14.83602
G1 X194.871 Y54.964 E14.94034
G1 X195.827 Y55.176 E15.04456
G1 X196.763 Y55.466 E15.14885
G1 X197.672 Y55.831 E15.25311
G1 X198.548 Y56.27 E15.3574
G1 X199.385 Y56.778 E15.46161
G1 X200.178 Y57.353 E15.56586
G1 X200.922 Y57.99 E15.6701
G1 X201.666 Y58.746 E15.783
G1 X201.684 Y58.766 E15.78586
G1 X202.309 Y59.521 E15.89018
G1 X202.87 Y60.323 E15.99435
G1 X203.364 Y61.169 E16.09861
G1 X203.788 Y62.053 E16.20296
G1 X204.138 Y62.968 E16.30723
G1 X204.412 Y63.908 E16.41144
G1 X204.608 Y64.868 E16.51572
G1 X204.726 Y65.84 E16.61994
G1 X204.759 Y66.457 E16.6857
G1 X204.768 Y66.777 E16.71977
G1 X204.773 Y67.114 E16.75564
G1 X204.772 Y104.242 E20.70726
G1 X204.761 Y104.949 E20.78252
G1 X204.705 Y105.927 E20.88678
G1 X204.571 Y106.897 E20.991
G1 X204.357 Y107.853 E21.09527
G1 X204.135 Y108.589 E21.17709
G1 X203.972 Y109.071 E21.23125
G1 X203.284 Y111.021 E21.45133
G1 X202.53 Y113.367 E21.7136
G1 X201.83 Y115.776 E21.9806
G1 X201.197 Y118.216 E22.24889
G1 X200.659 Y120.548 E22.50361
G1 X200.156 Y123.061 E22.77638
G1 X199.737 Y125.514 E23.04124
G1 X199.391 Y127.948 E23.3029
G1 X199.109 Y130.441 E23.56993
G1 X198.898 Y132.919 E23.83462
G1 X198.76 Y135.371 E24.09601
G1 X198.679 Y139.222 E24.50597
G1 X198.678 Y168.954 E27.67042
G1 X198.669 Y169.578 E27.73684
G1 X198.638 Y170.283 E27.81195
G1 X198.619 Y170.542 E27.83959
G1 X198.507 Y171.515 E27.94383
G1 X198.282 Y172.615 E28.06333
G1 X198.231 Y172.816 E28.0854
G1 X197.952 Y173.755 E28.18966
G1 X197.531 Y174.817 E28.31125
G1 X197.478 Y174.934 E28.32492
G1 X197.037 Y175.809 E28.42921
G1 X196.664 Y176.435 E28.50676
G1 X196.509 Y176.678 E28.53744
G1 X195.949 Y177.482 E28.64172
G1 X195.503 Y178.034 E28.71725
G1 X195.449 Y178.097 E28.72608
G1 X194.47 Y179.113 E28.87625
G1 X194.19 Y179.371 E28.91678
G1 X193.443 Y180.005 E29.02106
G1 X192.879 Y180.419 E29.09552
G1 X192.714 Y180.533 E29.11687
G1 X192.017 Y180.98 E29.20499
G1 X191.926 Y181.034 E29.21626
G1 X190.837 Y181.606 E29.34718
G1 X190.426 Y181.796 E29.39537
G1 X189.238 Y182.271 E29.53154
G1 X189.043 Y182.337 E29.55345
G1 X188.634 Y182.467 E29.59913
G1 X187.905 Y182.667 E29.67959
G1 X187.63 Y182.733 E29.70969
G1 X186.775 Y182.905 E29.80251
G1 X186.568 Y182.939 E29.82484
G1 X186.221 Y182.991 E29.86218
G1 X185.667 Y183.056 E29.92155
G1 X185.454 Y183.076 E29.94432
G1 X185.029 Y183.109 E29.98969
G1 X184.446 Y183.132 E30.05179
G1 X183.428 Y183.147 E30.16015
G1 X172.712 Y183.148 E31.30068
G1 X170.11 Y183.185 E31.57764
G1 X167.648 Y183.289 E31.83991
G1 X165.136 Y183.467 E32.10794
G1 X162.695 Y183.71 E32.36903
G1 X160.193 Y184.03 E32.63749
G1 X157.774 Y184.41 E32.89811
G1 X155.288 Y184.872 E33.16723
G1 X152.836 Y185.4 E33.43418
G1 X150.457 Y185.984 E33.6949
G1 X148.04 Y186.649 E33.96171
G1 X145.693 Y187.368 E34.22296
G1 X143.323 Y188.167 E34.48916
G1 X140.973 Y189.034 E34.75575
G1 X138.675 Y189.956 E35.01929
G1 X136.394 Y190.949 E35.28407
G1 X134.131 Y192.01 E35.55008
G1 X131.911 Y193.128 E35.81463
G1 X129.715 Y194.313 E36.08022
G1 X127.539 Y195.569 E36.34762
G1 X127.106 Y195.833 E36.4016
G1 X126.881 Y195.967 E36.42947
G1 X126.008 Y196.474 E36.53692
G1 X125.514 Y196.746 E36.59694
G1 X125.335 Y196.839 E36.61841
G1 X124.449 Y197.254 E36.72254
G1 X123.548 Y197.591 E36.82493
G1 X123.201 Y197.705 E36.8638
G1 X122.259 Y197.972 E36.96801
G1 X121.402 Y198.145 E37.06106
G1 X121.189 Y198.18 E37.08404
G1 X120.478 Y198.275 E37.16038
G1 X120.42 Y198.281 E37.16659
G1 X119.636 Y198.337 E37.25024
G1 X119.317 Y198.349 E37.28422
G1 X118.981 Y198.356 E37.31999
G1 X118.553 Y198.36 E37.36554
G1 X88.449 Y198.359 E40.56959
G1 X87.7 Y198.348 E40.64931
G1 X87.137 Y198.326 E40.70928
G1 X87.056 Y198.321 E40.71792
G1 X86.007 Y198.21 E40.83019
G1 X85.788 Y198.177 E40.85376
G1 X84.487 Y197.907 E40.99518
G1 X84.258 Y197.846 E41.0204
G1 X83.323 Y197.555 E41.12462
G1 X82.699 Y197.313 E41.19586
G1 X82.53 Y197.242 E41.21537
G1 X81.496 Y196.748 E41.33733
G1 X81.124 Y196.548 E41.38229
G1 X79.915 Y195.803 E41.53343
G1 X79.714 Y195.662 E41.55956
G1 X78.935 Y195.067 E41.66389
G1 X78.208 Y194.411 E41.76811
G1 X77.537 Y193.697 E41.8724
G1 X76.788 Y192.739 E42.00182
G1 X76.646 Y192.537 E42.0281
G1 X75.905 Y191.339 E42.17803
G1 X75.737 Y191.028 E42.21565
G1 X75.256 Y190.03 E42.33356
G1 X75.178 Y189.847 E42.35473
G1 X74.72 Y188.581 E42.49802
G1 X74.653 Y188.357 E42.52291
G1 X74.328 Y186.977 E42.6738
G1 X74.293 Y186.776 E42.69552
G1 X74.142 Y185.526 E42.82953
G1 X74.127 Y185.304 E42.85321
G1 X74.101 Y184.658 E42.92202
G1 X74.09 Y183.759 E43.01771
G1 X74.09 Y177.021 E43.73485
G1 X74.053 Y174.419 E44.01182
G1 X73.949 Y171.957 E44.27409
G1 X73.771 Y169.445 E44.54212
G1 X73.528 Y167.002 E44.80341
G1 X73.208 Y164.501 E45.07177
G1 X72.828 Y162.082 E45.33239
G1 X72.366 Y159.596 E45.60151
G1 X71.845 Y157.175 E45.86508
G1 X71.264 Y154.802 E46.12511
G1 X70.586 Y152.339 E46.397
G1 X69.87 Y150.001 E46.65725
G1 X69.071 Y147.631 E46.92344
G1 X68.202 Y145.276 E47.19061
G1 X67.283 Y142.988 E47.45303
G1 X66.291 Y140.709 E47.71758
G1 X65.225 Y138.435 E47.98488
G1 X64.101 Y136.201 E48.25105
G1 X62.929 Y134.032 E48.51344
G1 X61.693 Y131.889 E48.77675
G1 X60.373 Y129.743 E49.0449
G1 X59.03 Y127.693 E49.30574
G1 X57.063 Y124.894 E49.66985
G1 X56.816 Y124.556 E49.7144
G1 X56.454 Y124.033 E49.7821
G1 X56.338 Y123.855 E49.80471
G1 X55.888 Y123.105 E49.8978
G1 X55.83 Y123 E49.91057
G1 X55.297 Y121.908 E50.0399
G1 X55.195 Y121.669 E50.06756
G1 X54.708 Y120.306 E50.22161
G1 X54.647 Y120.096 E50.24488
G1 X54.343 Y118.772 E50.38946
G1 X54.304 Y118.544 E50.41408
G1 X54.152 Y117.218 E50.55614
G1 X54.141 Y117.029 E50.57629
G1 X54.122 Y116.503 E50.63231
G1 X54.111 Y115.733 E50.71427
G1 X54.11 Y58.988 E56.75378
G1 X54.111 Y58.822 E56.77144
G1 X54.12 Y58.173 E56.84053
G1 X54.139 Y57.642 E56.89708
G1 X54.155 Y57.367 E56.9264
G1 X54.318 Y55.975 E57.07556
G1 X54.353 Y55.777 E57.09696
G1 X54.604 Y54.668 E57.21798
G1 X54.664 Y54.451 E57.24194
G1 X55.116 Y53.124 E57.39115
G1 X55.184 Y52.957 E57.41034
G1 X55.735 Y51.788 E57.54789
G1 X55.866 Y51.545 E57.57727
G1 X56.366 Y50.702 E57.68159
G1 X56.671 Y50.254 E57.73927
G1 X56.802 Y50.071 E57.76322
G1 X57.565 Y49.113 E57.89357
G0 F6000 X58.165 Y49.642
G1 F1200 X58.301 Y49.488 E57.91544
G1 X59.188 Y48.591 E58.0497
G1 X59.333 Y48.46 E58.0705
G1 X60.214 Y47.742 E58.19147
G1 X60.417 Y47.593 E58.21827
G1 X61.203 Y47.066 E58.31899
G1 X61.629 Y46.818 E58.37145
G1 X61.839 Y46.702 E58.39698
G1 X63.021 Y46.137 E58.53642
G1 X63.239 Y46.048 E58.56148
G1 X64.129 Y45.727 E58.66218
G1 X64.898 Y45.517 E58.74702
G1 X65.241 Y45.436 E58.78453
G1 X66.17 Y45.257 E58.88523
G1 X66.854 Y45.177 E58.95852
G1 X67.121 Y45.154 E58.98705
G1 X67.922 Y45.114 E59.0724
G1 X68.69 Y45.103 E59.15415
G1 X98.503 Y45.102 E62.32722
G1 X99.324 Y45.112 E62.41461
G1 X99.827 Y45.13 E62.46818
G1 X100.101 Y45.146 E62.49739
G1 X101.263 Y45.275 E62.62183
G1 X101.464 Y45.308 E62.64351
G1 X102.767 Y45.603 E62.7857
G1 X102.974 Y45.663 E62.80864
G1 X104.157 Y46.079 E62.9421
G1 X104.371 Y46.168 E62.96677
G1 X104.766 Y46.341 E63.01267
G1 X105.18 Y46.534 E63.06128
G1 X107.195 Y47.508 E63.29949
G1 X109.437 Y48.515 E63.56107
G1 X111.712 Y49.462 E63.82335
G1 X114.151 Y50.395 E64.10128
G1 X116.475 Y51.209 E64.36336
G1 X118.906 Y51.985 E64.63496
G1 X121.266 Y52.664 E64.89633
G1 X123.762 Y53.308 E65.17069
G1 X126.153 Y53.855 E65.43174
G1 X128.624 Y54.344 E65.69984
G1 X131.122 Y54.766 E65.96947
G1 X133.625 Y55.116 E66.23846
G1 X136.094 Y55.391 E66.50287
G1 X138.627 Y55.601 E66.77339
G1 X141.112 Y55.736 E67.03826
G1 X143.614 Y55.801 E67.30465
G1 X146.114 Y55.794 E67.57073
G1 X149.914 Y55.654 E67.97545
G1 X150.977 Y55.593 E68.08877
G1 X151.274 Y55.579 E68.12042
G1 X151.563 Y55.57 E68.15119
G1 X151.912 Y55.565 E68.18834
G1 X192.229 Y55.565 E72.47937
G1 X192.91 Y55.575 E72.55186
G1 X193.855 Y55.629 E72.65261
G1 X194.792 Y55.762 E72.75333
G1 X195.714 Y55.975 E72.85405
G1 X196.616 Y56.264 E72.95486
G1 X197.489 Y56.628 E73.05553
G1 X198.329 Y57.065 E73.1563
G1 X199.128 Y57.57 E73.25691
G1 X199.883 Y58.142 E73.35772
G1 X200.586 Y58.775 E73.4584
G1 X201.089 Y59.302 E73.53594
G1 X201.692 Y60.031 E73.63663
G1 X202.231 Y60.809 E73.73737
G1 X202.702 Y61.63 E73.83811
G1 X203.103 Y62.487 E73.93881
G1 X203.429 Y63.375 E74.03949
G1 X203.68 Y64.288 E74.14027
G1 X203.853 Y65.218 E74.24095
G1 X203.96 Y66.479 E74.37564
G1 X203.969 Y66.799 E74.40972
G1 X203.973 Y67.114 E74.44324
G1 X203.972 Y104.229 E78.39348
G1 X203.961 Y104.936 E78.46874
G1 X203.906 Y105.881 E78.56949
G1 X203.772 Y106.818 E78.67023
G1 X203.559 Y107.74 E78.77095
G1 X203.377 Y108.334 E78.83707
G1 X203.217 Y108.805 E78.89001
G1 X202.526 Y110.763 E79.111
G1 X201.759 Y113.152 E79.37805
G1 X201.061 Y115.553 E79.64418
G1 X200.431 Y117.978 E79.91084
G1 X199.868 Y120.422 E80.17778
G1 X199.376 Y122.878 E80.44437
G1 X198.944 Y125.404 E80.71712
G1 X198.597 Y127.85 E80.98006
G1 X198.313 Y130.357 E81.24859
G1 X198.099 Y132.878 E81.51787
G1 X197.961 Y135.338 E81.78011
G1 X197.879 Y139.205 E82.19178
G1 X197.878 Y168.943 E85.35686
G1 X197.869 Y169.567 E85.42328
G1 X197.84 Y170.224 E85.49328
G1 X197.821 Y170.483 E85.52092
G1 X197.712 Y171.423 E85.62164
G1 X197.507 Y172.419 E85.72986
G1 X197.456 Y172.62 E85.75194
G1 X197.185 Y173.526 E85.85258
G1 X196.802 Y174.486 E85.96259
G1 X196.749 Y174.603 E85.97626
G1 X196.323 Y175.448 E86.07698
G1 X195.99 Y176.005 E86.14605
G1 X195.835 Y176.248 E86.17673
G1 X195.292 Y177.024 E86.27753
G1 X194.896 Y177.514 E86.34458
G1 X194.842 Y177.577 E86.35341
G1 X193.927 Y178.525 E86.49364
G1 X193.647 Y178.783 E86.53417
G1 X192.925 Y179.394 E86.63484
G1 X192.424 Y179.761 E86.70093
G1 X192.259 Y179.875 E86.72228
G1 X191.609 Y180.292 E86.80447
G1 X191.518 Y180.346 E86.81574
G1 X190.502 Y180.88 E86.9379
G1 X190.091 Y181.07 E86.98609
G1 X188.982 Y181.513 E87.11319
G1 X188.787 Y181.579 E87.1351
G1 X188.49 Y181.675 E87.16832
G1 X188.399 Y181.703 E87.17846
G1 X187.719 Y181.889 E87.25349
G1 X187.444 Y181.955 E87.28359
G1 X186.645 Y182.116 E87.37034
G1 X186.438 Y182.15 E87.39266
G1 X186.109 Y182.199 E87.42807
G1 X185.592 Y182.26 E87.48347
G1 X185.379 Y182.28 E87.50624
G1 X184.979 Y182.31 E87.54894
G1 X184.434 Y182.332 E87.60699
G1 X183.416 Y182.347 E87.71535
G1 X172.7 Y182.348 E88.85588
G1 X170.101 Y182.385 E89.13253
G1 X167.591 Y182.491 E89.39991
G1 X165.073 Y182.67 E89.66858
G1 X162.583 Y182.917 E89.9349
G1 X160.109 Y183.233 E90.20035
G1 X157.605 Y183.627 E90.47014
G1 X155.157 Y184.082 E90.73515
G1 X152.646 Y184.622 E91.00851
G1 X150.274 Y185.205 E91.26848
G1 X147.837 Y185.876 E91.53751
G1 X145.413 Y186.618 E91.80732
G1 X143.043 Y187.417 E92.07351
G1 X140.683 Y188.288 E92.34125
G1 X138.373 Y189.215 E92.60617
G1 X136.08 Y190.213 E92.87233
G1 X133.775 Y191.294 E93.1433
G1 X131.542 Y192.418 E93.40937
G1 X129.321 Y193.617 E93.678
G1 X127.158 Y194.865 E93.94379
G1 X126.689 Y195.151 E94.00225
G1 X126.48 Y195.275 E94.02812
G1 X125.607 Y195.782 E94.13557
G1 X125.146 Y196.036 E94.19159
G1 X124.967 Y196.129 E94.21306
G1 X124.109 Y196.529 E94.31381
G1 X123.299 Y196.83 E94.40578
G1 X122.952 Y196.944 E94.44466
G1 X122.041 Y197.202 E94.54543
G1 X121.272 Y197.356 E94.6289
G1 X121.059 Y197.391 E94.65188
G1 X120.395 Y197.48 E94.72318
G1 X120.337 Y197.486 E94.72939
G1 X119.606 Y197.537 E94.80738
G1 X119.287 Y197.549 E94.84135
G1 X118.973 Y197.556 E94.87478
G1 X118.553 Y197.56 E94.91948
G1 X88.461 Y197.559 E98.12225
G1 X87.712 Y197.548 E98.20198
G1 X87.186 Y197.528 E98.258
G1 X87.105 Y197.523 E98.26664
G1 X86.126 Y197.419 E98.37142
G1 X85.907 Y197.386 E98.39499
G1 X84.693 Y197.134 E98.52696
G1 X84.464 Y197.073 E98.55218
G1 X83.561 Y196.791 E98.65286
G1 X83.009 Y196.576 E98.71591
G1 X82.84 Y196.505 E98.73542
G1 X81.874 Y196.044 E98.84935
G1 X81.502 Y195.844 E98.8943
G1 X80.374 Y195.148 E99.03537
G1 X80.173 Y195.007 E99.0615
G1 X79.422 Y194.431 E99.16223
G1 X78.722 Y193.794 E99.26297
G1 X78.079 Y193.1 E99.36366
G1 X77.442 Y192.279 E99.47426
G1 X77.3 Y192.077 E99.50054
G1 X76.609 Y190.959 E99.64042
G1 X76.441 Y190.648 E99.67805
G1 X75.992 Y189.717 E99.78806
G1 X75.914 Y189.534 E99.80923
G1 X75.487 Y188.352 E99.94299
G1 X75.42 Y188.128 E99.96787
G1 X75.116 Y186.839 E100.10883
G1 X75.081 Y186.638 E100.13054
G1 X74.94 Y185.472 E100.25555
G1 X74.925 Y185.25 E100.27923
G1 X74.901 Y184.647 E100.34346
G1 X74.89 Y183.759 E100.43798
G1 X74.89 Y177.009 E101.1564
G1 X74.853 Y174.41 E101.43304
G1 X74.747 Y171.9 E101.70043
G1 X74.568 Y169.382 E101.9691
G1 X74.321 Y166.891 E102.23552
G1 X74.005 Y164.417 E102.50098
G1 X73.611 Y161.913 E102.77076
G1 X73.156 Y159.465 E103.03577
G1 X72.624 Y156.994 E103.30479
G1 X72.038 Y154.601 E103.56701
G1 X71.362 Y152.145 E103.83813
G1 X70.62 Y149.721 E104.10794
G1 X69.821 Y147.351 E104.37413
G1 X68.96 Y145.016 E104.63901
G1 X68.012 Y142.656 E104.9097
G1 X67.021 Y140.379 E105.174
G1 X65.943 Y138.079 E105.44435
G1 X64.818 Y135.847 E105.71038
G1 X63.633 Y133.653 E105.97577
G1 X62.366 Y131.456 E106.2457
G1 X61.064 Y129.338 E106.51031
G1 X59.679 Y127.224 E106.7793
G1 X57.743 Y124.47 E107.13759
G1 X57.462 Y124.085 E107.18832
G1 X57.125 Y123.596 E107.25153
G1 X57.009 Y123.418 E107.27414
G1 X56.588 Y122.718 E107.36108
G1 X56.53 Y122.613 E107.37385
G1 X56.033 Y121.594 E107.49451
G1 X55.931 Y121.355 E107.52217
G1 X55.477 Y120.083 E107.66592
G1 X55.416 Y119.873 E107.68919
G1 X55.131 Y118.637 E107.8242
G1 X55.092 Y118.409 E107.84881
G1 X54.951 Y117.172 E107.98132
G1 X54.94 Y116.983 E108.00147
G1 X54.922 Y116.492 E108.05377
G1 X54.911 Y115.722 E108.13573
G1 X54.91 Y58.988 E114.17407
G1 X54.92 Y58.184 E114.25964
G1 X54.938 Y57.688 E114.31247
G1 X54.954 Y57.413 E114.34179
G1 X55.106 Y56.114 E114.48099
G1 X55.141 Y55.916 E114.50239
